X:1
T:Herzlich Lieb, PM
T:Otgeltabulatur-Buch, by Bernhard Schmid, 1577
T:Herzlich Lieb, PM
T:Public Domain
T:Public Domain
C:Otgeltabulatur-Buch, by Bernhard Schmid, 1577
Z:Public Domain
%%score ( 1 2 ) ( 3 4 )
L:1/8
M:none
K:Bb
V:1 treble 
V:2 treble 
V:3 bass 
V:4 bass 
V:1
 [FB]4 [FA]2 [DG]2 [DF]2 (ED) [B,G]2 [CG]2 [DF]4 | %1
 (D2 E2) [FA]2 [EG]2 [CF]2 (ED) [CG]2 [EG]2 [DF]2 | F2 [FG]2 [EA]2 [DB]2 [Fd]2 (FE F2) [DB]4 | %3
 [FB]4 [FA]2 [DG]2 [DF]2 (ED) [B,G]2 [CG]2 [DF]4 | %4
 (D2 E2) [FA]2 [EG]2 [CF]2 (ED) [CG]2 [EG]2 [DF]2 | F2 [FG]2 [EA]2 [DB]2 [Fd]2 (FE F2) [DB]4 | %6
 z2 [FB]2 [GB]2 [Gc]2 [GB]2 (DE) [FB]2 [GB]2 [FA]2 | %7
 [FA]2 [FB]2 [Ec]2 [FB]2 [EG]2 [DB]2 [=EB]2 [^FA]2 | %8
 [GB]2 [Ad]2 [Bd]2 [Gc]2 [GB]2 [GB]2 [FA]2 [FB]2 | %9
 [FA]2 [FB]2 [FA]2 [DG]2 [DF]2 [DF]2 [C=E]2 [CF]4 | %10
 (F2 G2) (G2 F2) z2 =E2 [^FA]2 [Gd]2 [G=e]2 [Gc]2 | [GB]2 [Gc]2 [FB]2 [FA]2 [FB]2 | %12
 [GB]2 [GB]2 [GB]2 [Gc]2 [FB]2 (FE) [FA]2 [FB]8 |] %13
V:2
 x10 B,2 x8 | B4 x4 B,2 x8 | F2 x6 c4 x6 | x10 B,2 x8 | B4 x4 B,2 x8 | F2 x6 c4 x6 | x10 G2 x6 | %7
 x16 | x16 | x18 | d4 c4 B4 x8 | x10 | x10 B2 x10 |] %13
V:3
 [B,,D]4 [F,C]2 [G,B,]2 [D,A,]2 (G,F,) [E,G,]2 [E,A,]2 [B,,B,]4 | %1
 (B,2 C2) [D,D]2 [E,B,]2 [F,A,]2 (G,F,) [E,G,]2 [C,B,]2 [D,A,]2 | %2
 [D,B,]2 [E,D]2 [F,C]2 [G,B,]2 (D,E,) (B,2 A,2) [B,,B,]4 | %3
 [B,,D]4 [F,C]2 [G,B,]2 [D,A,]2 (G,F,) [E,G,]2 [E,A,]2 [B,,B,]4 | %4
 (B,2 C2) [D,D]2 [E,B,]2 [F,A,]2 (G,F,) [E,G,]2 [C,B,]2 [D,A,]2 | %5
 [D,B,]2 [E,D]2 [F,C]2 [G,B,]2 (D,E,) (B,2 A,2) [B,,B,]4 | %6
 z2 (B,A,) [G,D]2 [E,C]2 [G,D]2 [G,B,]2 [D,B,]2 [E,E]2 [F,C]2 | %7
 (F,E,) [D,B,]2 [C,G,]2 [D,B,]2 (E,F,) [G,B,]2 [G,C]2 [D,D]2 | %8
 [G,D]2 [F,D]2 [D,F]2 (E,F,) [G,D]2 [E,D]2 [F,C]2 [B,,D]2 | %9
 [F,C]2 [D,B,]2 [F,C]2 (B,,C,) [D,A,]2 [B,,A,]2 [C,G,]2 [F,A,]4 | %10
 [B,,B,]4 [A,,C]4 [G,,D]4 [D,D]2 [B,,D]2 [C,C]2 [E,C]2 | [G,D]2 [C,E]2 [D,D]2 [F,C]2 [B,D]2 | %12
 (G,F,) [E,E]2 [D,F]2 [C,E]2 (D,E,) [F,C]2 [F,C]2 [B,,D]8 |] %13
V:4
 x10 G,2 x8 | G,,4 x4 G,2 x8 | x8 B,2 F,4 x4 | x10 G,2 x8 | G,,4 x4 G,2 x8 | x8 B,2 F,4 x4 | %6
 x2 D2 x14 | C2 x5 B,2 x7 | x6 E2 x8 | x6 B,2 x10 | x20 | x10 | D2 x5 D2 x13 |] %13

